static/img/kroki/39b9d51a79b8423cb77bd2a3e2070e75.svg

<?xml version="1.0" encoding="us-ascii" standalone="no"?><svg xmlns="http://www.w3.org/2000/svg" xmlns:xlink="http://www.w3.org/1999/xlink" contentStyleType="text/css" height="992px" preserveAspectRatio="none" style="width:343px;height:992px;" version="1.1" viewBox="0 0 343 992" width="343px" zoomAndPan="magnify"><defs/><g><!--class aws_region--><g id="elem_aws_region"><rect codeLine="23" fill="#3D176E" height="39.7891" id="aws_region" rx="2.5" ry="2.5" style="stroke:#000D19;stroke-width:0.5;" width="137" x="53" y="946.61"/><ellipse cx="68" cy="966.5045" fill="#ADD1B2" rx="11" ry="11" style="stroke:#181818;stroke-width:1.0;"/><path d="M70.9688,972.1452 Q70.3906,972.442 69.75,972.5827 Q69.1094,972.7389 68.4063,972.7389 Q65.9063,972.7389 64.5781,971.0983 Q63.2656,969.442 63.2656,966.317 Q63.2656,963.192 64.5781,961.5358 Q65.9063,959.8795 68.4063,959.8795 Q69.1094,959.8795 69.75,960.0358 Q70.4063,960.192 70.9688,960.4889 L70.9688,963.2077 Q70.3438,962.6295 69.75,962.3639 Q69.1563,962.0827 68.5313,962.0827 Q67.1875,962.0827 66.5,963.1608 Q65.8125,964.2233 65.8125,966.317 Q65.8125,968.4108 66.5,969.4889 Q67.1875,970.5514 68.5313,970.5514 Q69.1563,970.5514 69.75,970.2858 Q70.3438,970.0045 70.9688,969.4264 L70.9688,972.1452 Z " fill="#000000"/><text fill="#D9B8FF" font-family="Helvetica" font-size="17" lengthAdjust="spacing" textLength="95" x="87" y="972.3898">aws_region</text></g><!--class aws_resource--><g id="elem_aws_resource"><rect codeLine="26" fill="#3D176E" height="74.0859" id="aws_resource" rx="2.5" ry="2.5" style="stroke:#000D19;stroke-width:0.5;" width="155" x="8" y="538.55"/><ellipse cx="23" cy="558.4445" fill="#ADD1B2" rx="11" ry="11" style="stroke:#181818;stroke-width:1.0;"/><path d="M25.9688,564.0852 Q25.3906,564.382 24.75,564.5227 Q24.1094,564.6789 23.4063,564.6789 Q20.9063,564.6789 19.5781,563.0383 Q18.2656,561.382 18.2656,558.257 Q18.2656,555.132 19.5781,553.4758 Q20.9063,551.8195 23.4063,551.8195 Q24.1094,551.8195 24.75,551.9758 Q25.4063,552.132 25.9688,552.4289 L25.9688,555.1477 Q25.3438,554.5695 24.75,554.3039 Q24.1563,554.0227 23.5313,554.0227 Q22.1875,554.0227 21.5,555.1008 Q20.8125,556.1633 20.8125,558.257 Q20.8125,560.3508 21.5,561.4289 Q22.1875,562.4914 23.5313,562.4914 Q24.1563,562.4914 24.75,562.2258 Q25.3438,561.9445 25.9688,561.3664 L25.9688,564.0852 Z " fill="#000000"/><text fill="#D9B8FF" font-family="Helvetica" font-size="17" lengthAdjust="spacing" textLength="113" x="42" y="564.3298">aws_resource</text><line style="stroke:#000D19;stroke-width:0.5;" x1="9" x2="162" y1="578.3391" y2="578.3391"/><text fill="#D9B8FF" font-family="sans-serif" font-size="14" font-weight="bold" lengthAdjust="spacing" textLength="26" x="19" y="600.3342">arn</text><text fill="#D9B8FF" font-family="sans-serif" font-size="14" lengthAdjust="spacing" textLength="48" x="45" y="600.3342">: string</text></g><!--class phantom_resource--><g id="elem_phantom_resource"><rect codeLine="29" fill="#3D176E" height="39.7891" id="phantom_resource" rx="2.5" ry="2.5" style="stroke:#000D19;stroke-width:0.5;" width="198" x="138.5" y="438.76"/><ellipse cx="153.5" cy="458.6545" fill="#ADD1B2" rx="11" ry="11" style="stroke:#181818;stroke-width:1.0;"/><path d="M156.4688,464.2952 Q155.8906,464.592 155.25,464.7327 Q154.6094,464.8889 153.9063,464.8889 Q151.4063,464.8889 150.0781,463.2483 Q148.7656,461.592 148.7656,458.467 Q148.7656,455.342 150.0781,453.6858 Q151.4063,452.0295 153.9063,452.0295 Q154.6094,452.0295 155.25,452.1858 Q155.9063,452.342 156.4688,452.6389 L156.4688,455.3577 Q155.8438,454.7795 155.25,454.5139 Q154.6563,454.2327 154.0313,454.2327 Q152.6875,454.2327 152,455.3108 Q151.3125,456.3733 151.3125,458.467 Q151.3125,460.5608 152,461.6389 Q152.6875,462.7014 154.0313,462.7014 Q154.6563,462.7014 155.25,462.4358 Q155.8438,462.1545 156.4688,461.5764 L156.4688,464.2952 Z " fill="#000000"/><text fill="#D9B8FF" font-family="Helvetica" font-size="17" lengthAdjust="spacing" textLength="156" x="172.5" y="464.5398">phantom_resource</text></g><!--class region--><g id="elem_region"><rect codeLine="32" fill="#3D176E" height="152.9766" id="region" rx="2.5" ry="2.5" style="stroke:#000D19;stroke-width:0.5;" width="195" x="139" y="672.63"/><ellipse cx="200.75" cy="692.5245" fill="#ADD1B2" rx="11" ry="11" style="stroke:#181818;stroke-width:1.0;"/><path d="M203.7188,698.1652 Q203.1406,698.462 202.5,698.6027 Q201.8594,698.7589 201.1563,698.7589 Q198.6563,698.7589 197.3281,697.1183 Q196.0156,695.462 196.0156,692.337 Q196.0156,689.212 197.3281,687.5558 Q198.6563,685.8995 201.1563,685.8995 Q201.8594,685.8995 202.5,686.0558 Q203.1563,686.212 203.7188,686.5089 L203.7188,689.2277 Q203.0938,688.6495 202.5,688.3839 Q201.9063,688.1027 201.2813,688.1027 Q199.9375,688.1027 199.25,689.1808 Q198.5625,690.2433 198.5625,692.337 Q198.5625,694.4308 199.25,695.5089 Q199.9375,696.5714 201.2813,696.5714 Q201.9063,696.5714 202.5,696.3058 Q203.0938,696.0245 203.7188,695.4464 L203.7188,698.1652 Z " fill="#000000"/><text fill="#D9B8FF" font-family="Helvetica" font-size="17" lengthAdjust="spacing" textLength="53" x="226.25" y="698.4098">region</text><line style="stroke:#000D19;stroke-width:0.5;" x1="140" x2="333" y1="712.4191" y2="712.4191"/><text fill="#D9B8FF" font-family="sans-serif" font-size="14" font-weight="bold" lengthAdjust="spacing" textLength="59" x="150" y="734.4142">latitude</text><text fill="#D9B8FF" font-family="sans-serif" font-size="14" lengthAdjust="spacing" textLength="57" x="209" y="734.4142">: double</text><text fill="#D9B8FF" font-family="sans-serif" font-size="14" font-weight="bold" lengthAdjust="spacing" textLength="84" x="150" y="760.7111">long_name</text><text fill="#D9B8FF" font-family="sans-serif" font-size="14" lengthAdjust="spacing" textLength="48" x="234" y="760.7111">: string</text><text fill="#D9B8FF" font-family="sans-serif" font-size="14" font-weight="bold" lengthAdjust="spacing" textLength="74" x="150" y="787.0079">longitude</text><text fill="#D9B8FF" font-family="sans-serif" font-size="14" lengthAdjust="spacing" textLength="57" x="224" y="787.0079">: double</text><text fill="#D9B8FF" font-family="sans-serif" font-size="14" font-weight="bold" lengthAdjust="spacing" textLength="108" x="150" y="813.3048">region_in_use</text><text fill="#D9B8FF" font-family="sans-serif" font-size="14" lengthAdjust="spacing" textLength="65" x="258" y="813.3048">: boolean</text></g><!--class resource--><g id="elem_resource"><rect codeLine="38" fill="#3D176E" height="310.7578" id="resource" rx="2.5" ry="2.5" style="stroke:#000D19;stroke-width:0.5;" width="227" x="7" y="7"/><ellipse cx="75.75" cy="26.8945" fill="#ADD1B2" rx="11" ry="11" style="stroke:#181818;stroke-width:1.0;"/><path d="M78.7188,32.5352 Q78.1406,32.832 77.5,32.9727 Q76.8594,33.1289 76.1563,33.1289 Q73.6563,33.1289 72.3281,31.4883 Q71.0156,29.832 71.0156,26.707 Q71.0156,23.582 72.3281,21.9258 Q73.6563,20.2695 76.1563,20.2695 Q76.8594,20.2695 77.5,20.4258 Q78.1563,20.582 78.7188,20.8789 L78.7188,23.5977 Q78.0938,23.0195 77.5,22.7539 Q76.9063,22.4727 76.2813,22.4727 Q74.9375,22.4727 74.25,23.5508 Q73.5625,24.6133 73.5625,26.707 Q73.5625,28.8008 74.25,29.8789 Q74.9375,30.9414 76.2813,30.9414 Q76.9063,30.9414 77.5,30.6758 Q78.0938,30.3945 78.7188,29.8164 L78.7188,32.5352 Z " fill="#000000"/><text fill="#D9B8FF" font-family="Helvetica" font-size="17" lengthAdjust="spacing" textLength="71" x="101.25" y="32.7798">resource</text><line style="stroke:#000D19;stroke-width:0.5;" x1="8" x2="233" y1="46.7891" y2="46.7891"/><text fill="#D9B8FF" font-family="sans-serif" font-size="14" font-weight="bold" lengthAdjust="spacing" textLength="29" x="18" y="68.7842">age</text><text fill="#D9B8FF" font-family="sans-serif" font-size="14" lengthAdjust="spacing" textLength="66" x="47" y="68.7842">: duration</text><text fill="#D9B8FF" font-family="sans-serif" font-size="14" font-weight="bold" lengthAdjust="spacing" textLength="43" x="18" y="95.0811">atime</text><text fill="#D9B8FF" font-family="sans-serif" font-size="14" lengthAdjust="spacing" textLength="70" x="61" y="95.0811">: datetime</text><text fill="#D9B8FF" font-family="sans-serif" font-size="14" font-weight="bold" lengthAdjust="spacing" textLength="43" x="18" y="121.3779">ctime</text><text fill="#D9B8FF" font-family="sans-serif" font-size="14" lengthAdjust="spacing" textLength="70" x="61" y="121.3779">: datetime</text><text fill="#D9B8FF" font-family="sans-serif" font-size="14" font-weight="bold" lengthAdjust="spacing" textLength="14" x="18" y="147.6748">id</text><text fill="#D9B8FF" font-family="sans-serif" font-size="14" lengthAdjust="spacing" textLength="48" x="32" y="147.6748">: string</text><text fill="#D9B8FF" font-family="sans-serif" font-size="14" font-weight="bold" lengthAdjust="spacing" textLength="33" x="18" y="173.9717">kind</text><text fill="#D9B8FF" font-family="sans-serif" font-size="14" lengthAdjust="spacing" textLength="48" x="51" y="173.9717">: string</text><text fill="#D9B8FF" font-family="sans-serif" font-size="14" font-weight="bold" lengthAdjust="spacing" textLength="90" x="18" y="200.2686">last_access</text><text fill="#D9B8FF" font-family="sans-serif" font-size="14" lengthAdjust="spacing" textLength="66" x="108" y="200.2686">: duration</text><text fill="#D9B8FF" font-family="sans-serif" font-size="14" font-weight="bold" lengthAdjust="spacing" textLength="90" x="18" y="226.5654">last_update</text><text fill="#D9B8FF" font-family="sans-serif" font-size="14" lengthAdjust="spacing" textLength="66" x="108" y="226.5654">: duration</text><text fill="#D9B8FF" font-family="sans-serif" font-size="14" font-weight="bold" lengthAdjust="spacing" textLength="48" x="18" y="252.8623">mtime</text><text fill="#D9B8FF" font-family="sans-serif" font-size="14" lengthAdjust="spacing" textLength="70" x="66" y="252.8623">: datetime</text><text fill="#D9B8FF" font-family="sans-serif" font-size="14" font-weight="bold" lengthAdjust="spacing" textLength="43" x="18" y="279.1592">name</text><text fill="#D9B8FF" font-family="sans-serif" font-size="14" lengthAdjust="spacing" textLength="48" x="61" y="279.1592">: string</text><text fill="#D9B8FF" font-family="sans-serif" font-size="14" font-weight="bold" lengthAdjust="spacing" textLength="34" x="18" y="305.4561">tags</text><text fill="#D9B8FF" font-family="sans-serif" font-size="14" lengthAdjust="spacing" textLength="171" x="52" y="305.4561">: dictionary[string, string]</text></g><!--reverse link aws_resource to aws_region--><g id="link_aws_resource_aws_region"><path codeLine="50" d="M90.5105,630.7532 C97.9705,711.2732 114.04,884.86 119.72,946.23 " fill="none" id="aws_resource-backto-aws_region" style="stroke:#FFAF37;stroke-width:2.0;"/><polygon fill="none" points="88.85,612.83,84.5361,631.3068,96.485,630.1997,88.85,612.83" style="stroke:#FFAF37;stroke-width:2.0;"/></g><!--reverse link region to aws_region--><g id="link_region_aws_region"><path codeLine="51" d="M187.479,841.9368 C164.579,884.8068 146.23,919.18 131.86,946.11 " fill="none" id="region-backto-aws_region" style="stroke:#FFAF37;stroke-width:2.0;"/><polygon fill="none" points="195.96,826.06,182.1868,839.1098,192.7713,844.7638,195.96,826.06" style="stroke:#FFAF37;stroke-width:2.0;"/></g><!--reverse link resource to aws_resource--><g id="link_resource_aws_resource"><path codeLine="52" d="M105.7938,336.1952 C98.9938,416.1052 92.79,488.98 88.6,538.2 " fill="none" id="resource-backto-aws_resource" style="stroke:#FFAF37;stroke-width:2.0;"/><polygon fill="none" points="107.32,318.26,99.8154,335.6864,111.7722,336.7039,107.32,318.26" style="stroke:#FFAF37;stroke-width:2.0;"/></g><!--reverse link resource to phantom_resource--><g id="link_resource_phantom_resource"><path codeLine="53" d="M188.5604,334.5664 C207.7604,382.8564 219.89,413.37 229.95,438.67 " fill="none" id="resource-backto-phantom_resource" style="stroke:#FFAF37;stroke-width:2.0;"/><polygon fill="none" points="181.91,317.84,182.9849,336.7832,194.1358,332.3496,181.91,317.84" style="stroke:#FFAF37;stroke-width:2.0;"/></g><!--reverse link phantom_resource to region--><g id="link_phantom_resource_region"><path codeLine="54" d="M237.3698,497.0299 C237.2398,535.8699 236.99,607.12 236.76,672.22 " fill="none" id="phantom_resource-backto-region" style="stroke:#FFAF37;stroke-width:2.0;"/><polygon fill="none" points="237.43,479.03,231.3698,497.0098,243.3697,497.05,237.43,479.03" style="stroke:#FFAF37;stroke-width:2.0;"/></g><!--SRC=[XLFBRjim4BphAmZa9iI0tI1rNEII62ZQIr0qlHM5i29NCc6959Qh6kxZtqkQha4zajo4cU7Cx2wqqme5jXqVHOjjYUGojzUc0u9MF13PmzOsbiHLLK5rinwJ7wtXDmLFqABuXCrFP2rXhFYsqt9lq3dnBg4UGUvhihrHqPu9ZFCK6avKsmQSUs0cNVQCIHcrAU-gQgmScrxTgDNwFKvabXJIMR9SBjLgCvQy6VNgt1V5i_w5OfKkxSaoJcfE8awgLri6HL9oCkX__iMENq0fRMfncs1VOoSoI0FyUGVA7eAwWiQbCOwHqFAnm-raAjpSgMezA_xyaZYJONK23guWhBKrudUM_HsWplOaqUDv3cJo_8Ft9T_j8kjsODYsgVJ2NKppl07Mt2iC3ihsPOC1jAOkZDzPuXlHgJPw5TeKlJinfRKDWad2qgvrVDsJpxKc8AnZZWB6yEqnEODfDIZZrpa4V1ON8AN_nKO99wRlWjU8QMTo9cCprD5Ho_0CwFWzSjTdpGy_wk0eztyMYqLolUoyxnbyvaM4njpudDdalb5tTlu7]--></g></svg>

<svg xmlns="http://www.w3.org/2000/svg" width="343" height="992" viewBox="0 0 343 992"><rect width="137" height="39.789" x="53" y="946.61" fill="#3D176E" rx="2.5" ry="2.5" style="stroke:#000d19;stroke-width:.5"/><circle cx="68" cy="966.505" r="11" fill="#ADD1B2" style="stroke:#181818;stroke-width:1"/><path d="M70.969 972.145q-.578.297-1.219.438-.64.156-1.344.156-2.5 0-3.828-1.64-1.312-1.657-1.312-4.782t1.312-4.781q1.328-1.656 3.828-1.656.703 0 1.344.156.656.156 1.219.453v2.719q-.625-.578-1.219-.844-.594-.281-1.219-.281-1.344 0-2.031 1.078-.687 1.062-.687 3.156t.687 3.172q.688 1.062 2.031 1.062.625 0 1.219-.265.594-.281 1.219-.86z"/><text x="87" y="972.39" fill="#D9B8FF" font-family="Helvetica" font-size="17" textLength="95">aws_region</text><rect width="155" height="74.086" x="8" y="538.55" fill="#3D176E" rx="2.5" ry="2.5" style="stroke:#000d19;stroke-width:.5"/><circle cx="23" cy="558.444" r="11" fill="#ADD1B2" style="stroke:#181818;stroke-width:1"/><path d="M25.969 564.085q-.578.297-1.219.438-.64.156-1.344.156-2.5 0-3.828-1.64-1.312-1.657-1.312-4.782t1.312-4.781q1.328-1.657 3.828-1.657.703 0 1.344.157.656.156 1.219.453v2.719q-.625-.579-1.219-.844-.594-.281-1.219-.281-1.343 0-2.031 1.078-.687 1.062-.687 3.156t.687 3.172q.688 1.062 2.031 1.062.625 0 1.219-.265.594-.282 1.219-.86z"/><text x="42" y="564.33" fill="#D9B8FF" font-family="Helvetica" font-size="17" textLength="113">aws_resource</text><path d="M9 578.339h153" style="stroke:#000d19;stroke-width:.5"/><text x="19" y="600.334" fill="#D9B8FF" font-family="sans-serif" font-size="14" font-weight="bold" textLength="26">arn</text><text x="45" y="600.334" fill="#D9B8FF" font-family="sans-serif" font-size="14" textLength="48">: string</text><rect width="198" height="39.789" x="138.5" y="438.76" fill="#3D176E" rx="2.5" ry="2.5" style="stroke:#000d19;stroke-width:.5"/><circle cx="153.5" cy="458.654" r="11" fill="#ADD1B2" style="stroke:#181818;stroke-width:1"/><path d="M156.469 464.295q-.578.297-1.219.438-.64.156-1.344.156-2.5 0-3.828-1.64-1.312-1.657-1.312-4.782t1.312-4.781q1.328-1.656 3.828-1.656.703 0 1.344.156.656.156 1.219.453v2.719q-.625-.579-1.219-.844-.594-.281-1.219-.281-1.344 0-2.031 1.078-.687 1.062-.687 3.156t.687 3.172q.688 1.062 2.031 1.062.625 0 1.219-.265.594-.281 1.219-.86z"/><text x="172.5" y="464.54" fill="#D9B8FF" font-family="Helvetica" font-size="17" textLength="156">phantom_resource</text><rect width="195" height="152.977" x="139" y="672.63" fill="#3D176E" rx="2.5" ry="2.5" style="stroke:#000d19;stroke-width:.5"/><circle cx="200.75" cy="692.524" r="11" fill="#ADD1B2" style="stroke:#181818;stroke-width:1"/><path d="M203.719 698.165q-.578.297-1.219.438-.64.156-1.344.156-2.5 0-3.828-1.64-1.312-1.657-1.312-4.782t1.312-4.781q1.328-1.657 3.828-1.657.703 0 1.344.157.656.156 1.219.453v2.719q-.625-.578-1.219-.844-.594-.281-1.219-.281-1.344 0-2.031 1.078-.687 1.062-.687 3.156t.687 3.172q.688 1.062 2.031 1.062.625 0 1.219-.265.594-.282 1.219-.86z"/><text x="226.25" y="698.41" fill="#D9B8FF" font-family="Helvetica" font-size="17" textLength="53">region</text><path d="M140 712.419h193" style="stroke:#000d19;stroke-width:.5"/><text x="150" y="734.414" fill="#D9B8FF" font-family="sans-serif" font-size="14" font-weight="bold" textLength="59">latitude</text><text x="209" y="734.414" fill="#D9B8FF" font-family="sans-serif" font-size="14" textLength="57">: double</text><text x="150" y="760.711" fill="#D9B8FF" font-family="sans-serif" font-size="14" font-weight="bold" textLength="84">long_name</text><text x="234" y="760.711" fill="#D9B8FF" font-family="sans-serif" font-size="14" textLength="48">: string</text><text x="150" y="787.008" fill="#D9B8FF" font-family="sans-serif" font-size="14" font-weight="bold" textLength="74">longitude</text><text x="224" y="787.008" fill="#D9B8FF" font-family="sans-serif" font-size="14" textLength="57">: double</text><text x="150" y="813.305" fill="#D9B8FF" font-family="sans-serif" font-size="14" font-weight="bold" textLength="108">region_in_use</text><text x="258" y="813.305" fill="#D9B8FF" font-family="sans-serif" font-size="14" textLength="65">: boolean</text><rect width="227" height="310.758" x="7" y="7" fill="#3D176E" rx="2.5" ry="2.5" style="stroke:#000d19;stroke-width:.5"/><circle cx="75.75" cy="26.895" r="11" fill="#ADD1B2" style="stroke:#181818;stroke-width:1"/><path d="M78.719 32.535q-.578.297-1.219.438-.64.156-1.344.156-2.5 0-3.828-1.64-1.312-1.657-1.312-4.782t1.312-4.781q1.328-1.656 3.828-1.656.703 0 1.344.156.656.156 1.219.453v2.719q-.625-.578-1.219-.844-.594-.281-1.219-.281-1.344 0-2.031 1.078-.687 1.062-.687 3.156t.687 3.172q.688 1.062 2.031 1.062.625 0 1.219-.265.594-.281 1.219-.86z"/><text x="101.25" y="32.78" fill="#D9B8FF" font-family="Helvetica" font-size="17" textLength="71">resource</text><path d="M8 46.789h225" style="stroke:#000d19;stroke-width:.5"/><text x="18" y="68.784" fill="#D9B8FF" font-family="sans-serif" font-size="14" font-weight="bold" textLength="29">age</text><text x="47" y="68.784" fill="#D9B8FF" font-family="sans-serif" font-size="14" textLength="66">: duration</text><text x="18" y="95.081" fill="#D9B8FF" font-family="sans-serif" font-size="14" font-weight="bold" textLength="43">atime</text><text x="61" y="95.081" fill="#D9B8FF" font-family="sans-serif" font-size="14" textLength="70">: datetime</text><text x="18" y="121.378" fill="#D9B8FF" font-family="sans-serif" font-size="14" font-weight="bold" textLength="43">ctime</text><text x="61" y="121.378" fill="#D9B8FF" font-family="sans-serif" font-size="14" textLength="70">: datetime</text><text x="18" y="147.675" fill="#D9B8FF" font-family="sans-serif" font-size="14" font-weight="bold" textLength="14">id</text><text x="32" y="147.675" fill="#D9B8FF" font-family="sans-serif" font-size="14" textLength="48">: string</text><text x="18" y="173.972" fill="#D9B8FF" font-family="sans-serif" font-size="14" font-weight="bold" textLength="33">kind</text><text x="51" y="173.972" fill="#D9B8FF" font-family="sans-serif" font-size="14" textLength="48">: string</text><text x="18" y="200.269" fill="#D9B8FF" font-family="sans-serif" font-size="14" font-weight="bold" textLength="90">last_access</text><text x="108" y="200.269" fill="#D9B8FF" font-family="sans-serif" font-size="14" textLength="66">: duration</text><text x="18" y="226.565" fill="#D9B8FF" font-family="sans-serif" font-size="14" font-weight="bold" textLength="90">last_update</text><text x="108" y="226.565" fill="#D9B8FF" font-family="sans-serif" font-size="14" textLength="66">: duration</text><text x="18" y="252.862" fill="#D9B8FF" font-family="sans-serif" font-size="14" font-weight="bold" textLength="48">mtime</text><text x="66" y="252.862" fill="#D9B8FF" font-family="sans-serif" font-size="14" textLength="70">: datetime</text><text x="18" y="279.159" fill="#D9B8FF" font-family="sans-serif" font-size="14" font-weight="bold" textLength="43">name</text><text x="61" y="279.159" fill="#D9B8FF" font-family="sans-serif" font-size="14" textLength="48">: string</text><text x="18" y="305.456" fill="#D9B8FF" font-family="sans-serif" font-size="14" font-weight="bold" textLength="34">tags</text><text x="52" y="305.456" fill="#D9B8FF" font-family="sans-serif" font-size="14" textLength="171">: dictionary[string, string]</text><g fill="none"><path d="M90.51 630.753c7.46 80.52 23.53 254.107 29.21 315.477" style="stroke:#ffaf37;stroke-width:2"/><path d="m88.85 612.83-4.314 18.477 11.949-1.107z" style="stroke:#ffaf37;stroke-width:2"/></g><path fill="none" d="M187.479 841.937c-22.9 42.87-41.249 77.243-55.619 104.173m64.1-120.05-13.773 13.05 10.584 5.654z" style="stroke:#ffaf37;stroke-width:2"/><g fill="none"><path d="M105.794 336.195C98.994 416.105 92.79 488.98 88.6 538.2" style="stroke:#ffaf37;stroke-width:2"/><path d="m107.32 318.26-7.505 17.426 11.957 1.018z" style="stroke:#ffaf37;stroke-width:2"/></g><g fill="none"><path d="M188.56 334.566c19.2 48.29 31.33 78.804 41.39 104.104" style="stroke:#ffaf37;stroke-width:2"/><path d="m181.91 317.84 1.075 18.943 11.15-4.433z" style="stroke:#ffaf37;stroke-width:2"/></g><g fill="none"><path d="M237.37 497.03c-.13 38.84-.38 110.09-.61 175.19" style="stroke:#ffaf37;stroke-width:2"/><path d="m237.43 479.03-6.06 17.98 12 .04z" style="stroke:#ffaf37;stroke-width:2"/></g></svg>
